src/icons/command-artifact-check.svg

<svg enable-background="new 0 0 14 14" viewBox="0 0 14 14" xmlns="http://www.w3.org/2000/svg"><path d="m7 14c-3.9 0-7-3.1-7-7s3.1-7 7-7 7 3.1 7 7-3.1 7-7 7zm3.3-10c-.2 0-.3.1-.4.2l-4.2 4.2-1.6-1.5c-.1-.2-.2-.2-.4-.2-.4 0-.7.3-.7.6 0 .2.1.4.2.5l2 2c.1.1.3.2.5.2s.3-.1.4-.2l4.7-4.7c.1-.1.2-.2.2-.4 0-.4-.3-.7-.7-.7z" fill="#4d5969"/></svg>

<?xml version="1.0" encoding="utf-8"?>
<!-- Generator: Adobe Illustrator 20.1.0, SVG Export Plug-In . SVG Version: 6.00 Build 0)  -->
<svg version="1.1" id="Layer_1" xmlns="http://www.w3.org/2000/svg" xmlns:xlink="http://www.w3.org/1999/xlink" x="0px" y="0px"
	 viewBox="0 0 14 14" style="enable-background:new 0 0 14 14;" xml:space="preserve">
<style type="text/css">
	.st0{fill:#4D5969;}
</style>
<title>HDL/Icon/Standard/Command/artifact-check</title>
<desc>Created with Sketch.</desc>
<g id="Colors">
	<g id="Command-Icons" transform="translate(-120.000000, -265.000000)">
		<g id="Artifact-Check" transform="translate(99.000000, 247.000000)">
			<g id="HDL_x2F_Icon_x2F_Standard_x2F_Command_x2F_artifact_x5F_check" transform="translate(21.000000, 18.000000)">
				<path id="Combined-Shape_5_" class="st0" d="M7,14c-3.9,0-7-3.1-7-7s3.1-7,7-7s7,3.1,7,7S10.9,14,7,14z M10.3,4
					C10.1,4,10,4.1,9.9,4.2L5.7,8.4L4.1,6.9C4,6.7,3.9,6.7,3.7,6.7C3.3,6.7,3,7,3,7.3c0,0.2,0.1,0.4,0.2,0.5l2,2
					C5.3,9.9,5.5,10,5.7,10C5.9,10,6,9.9,6.1,9.8l4.7-4.7C10.9,5,11,4.9,11,4.7C11,4.3,10.7,4,10.3,4z"/>
			</g>
		</g>
	</g>
</g>
</svg>
